X:1
T:Like Likker Better Than Me
M:6/8
L:1/8
K:E
 B,| G2G/2-F/2 E2 E/2E/2|E-D C B,2 B,| D2 DB,-C D| E3 z2 B,| G2 F E2 E/2E/2|\
E-D CB, z B,| D2 D B,CD| E3 z2 G| B2 G E2 C| E2 CC z G| B2 GG-A B|\
 F2- F2 z B| B2 G E2 E|E-D C B,2 E| D2 D B,CD| E3 z2||
